Newaita/actions/24/run-build.svg

<?xml version="1.0" encoding="UTF-8"?>
<svg xmlns="http://www.w3.org/2000/svg" xmlns:xlink="http://www.w3.org/1999/xlink" width="24pt" height="24pt" viewBox="0 0 24 24" version="1.1">
<g id="surface1">
<path style=" stroke:none;fill-rule:nonzero;fill:rgb(25.882354%,25.882354%,25.882354%);fill-opacity:1;" d="M 10.914062 1.179688 C 10.367188 1.179688 9.921875 1.621094 9.921875 2.171875 L 9.921875 3.382812 C 8.921875 3.609375 7.988281 4 7.148438 4.527344 L 6.292969 3.675781 C 5.90625 3.285156 5.28125 3.285156 4.890625 3.675781 L 3.488281 5.078125 C 3.097656 5.46875 3.097656 6.09375 3.488281 6.480469 L 4.339844 7.335938 C 3.8125 8.175781 3.421875 9.109375 3.195312 10.109375 L 1.984375 10.109375 C 1.433594 10.109375 0.992188 10.554688 0.992188 11.101562 L 0.992188 13.085938 C 0.992188 13.636719 1.433594 14.078125 1.984375 14.078125 L 3.195312 14.078125 C 3.421875 15.078125 3.8125 16.015625 4.339844 16.855469 L 3.488281 17.707031 C 3.097656 18.097656 3.097656 18.722656 3.488281 19.113281 L 4.890625 20.515625 C 5.28125 20.902344 5.90625 20.902344 6.292969 20.515625 L 7.148438 19.660156 C 7.988281 20.1875 8.921875 20.582031 9.921875 20.804688 L 9.921875 22.019531 C 9.921875 22.566406 10.367188 23.011719 10.914062 23.011719 L 12.898438 23.011719 C 13.449219 23.011719 13.890625 22.566406 13.890625 22.019531 L 13.890625 20.804688 C 14.890625 20.582031 15.828125 20.1875 16.667969 19.660156 L 17.519531 20.515625 C 17.910156 20.902344 18.535156 20.902344 18.925781 20.515625 L 20.328125 19.113281 C 20.714844 18.722656 20.714844 18.097656 20.328125 17.707031 L 19.472656 16.855469 C 20 16.015625 20.394531 15.078125 20.617188 14.078125 L 21.832031 14.078125 C 22.378906 14.078125 22.824219 13.636719 22.824219 13.085938 L 22.824219 11.101562 C 22.824219 10.554688 22.378906 10.109375 21.832031 10.109375 L 20.617188 10.109375 C 20.394531 9.109375 20 8.175781 19.472656 7.335938 L 20.328125 6.480469 C 20.714844 6.09375 20.714844 5.46875 20.328125 5.078125 L 18.925781 3.675781 C 18.535156 3.285156 17.910156 3.285156 17.519531 3.675781 L 16.667969 4.527344 C 15.828125 4 14.890625 3.609375 13.890625 3.382812 L 13.890625 2.171875 C 13.890625 1.621094 13.449219 1.179688 12.898438 1.179688 Z M 11.90625 4.652344 C 16.03125 4.652344 19.347656 7.972656 19.347656 12.09375 C 19.347656 16.21875 16.03125 19.535156 11.90625 19.535156 C 7.785156 19.535156 4.464844 16.21875 4.464844 12.09375 C 4.464844 7.972656 7.785156 4.652344 11.90625 4.652344 Z M 11.90625 4.652344 "/>
<path style=" stroke:none;fill-rule:nonzero;fill:rgb(47.058824%,56.470591%,61.176473%);fill-opacity:1;" d="M 10.324219 8.414062 C 10.132812 8.40625 9.949219 8.476562 9.808594 8.609375 C 9.671875 8.742188 9.59375 8.925781 9.59375 9.117188 L 9.59375 15.070312 C 9.59375 15.324219 9.730469 15.558594 9.949219 15.683594 C 10.171875 15.808594 10.441406 15.804688 10.660156 15.675781 L 15.621094 12.699219 C 15.832031 12.570312 15.960938 12.34375 15.960938 12.09375 C 15.960938 11.847656 15.832031 11.617188 15.621094 11.492188 L 10.660156 8.515625 C 10.558594 8.453125 10.445312 8.421875 10.324219 8.414062 Z M 11 10.359375 L 13.890625 12.09375 L 11 13.828125 Z M 11 10.359375 "/>
</g>
</svg>

<svg xmlns="http://www.w3.org/2000/svg" width="32" height="32" viewBox="0 0 24 24"><path d="M10.914 1.18a.991.991 0 0 0-.992.992v1.21c-1 .227-1.934.618-2.774 1.145l-.855-.851a.986.986 0 0 0-1.402 0L3.488 5.078a.986.986 0 0 0 0 1.402l.852.856a8.911 8.911 0 0 0-1.145 2.773h-1.21a.991.991 0 0 0-.993.993v1.984c0 .55.442.992.992.992h1.211c.227 1 .618 1.938 1.145 2.777l-.852.852a.99.99 0 0 0 0 1.406l1.403 1.403a.993.993 0 0 0 1.402 0l.855-.856c.84.527 1.774.922 2.774 1.145v1.215c0 .546.445.992.992.992h1.984c.551 0 .993-.446.993-.992v-1.215a8.84 8.84 0 0 0 2.777-1.145l.852.856a.997.997 0 0 0 1.406 0l1.402-1.403a.997.997 0 0 0 0-1.406l-.855-.852a8.84 8.84 0 0 0 1.144-2.777h1.215a.991.991 0 0 0 .992-.992v-1.984a.994.994 0 0 0-.992-.993h-1.215a8.819 8.819 0 0 0-1.144-2.773l.855-.856a.993.993 0 0 0 0-1.402l-1.402-1.402a.99.99 0 0 0-1.406 0l-.852.851a8.933 8.933 0 0 0-2.777-1.144V2.172a.989.989 0 0 0-.993-.992zm.992 3.472a7.424 7.424 0 0 1 7.442 7.442 7.422 7.422 0 0 1-7.442 7.441 7.424 7.424 0 0 1-7.441-7.441 7.427 7.427 0 0 1 7.441-7.442zm0 0" fill="#424242"/><path d="M10.324 8.414a.706.706 0 0 0-.515.195.71.71 0 0 0-.215.508v5.953c0 .254.136.489.355.614a.711.711 0 0 0 .711-.008l4.961-2.977a.706.706 0 0 0 0-1.207l-4.96-2.976a.719.719 0 0 0-.337-.102zM11 10.36l2.89 1.735L11 13.828zm0 0" fill="#78909c"/></svg>
